images/icon-add-gray.svg

<svg width="18" height="18" viewBox="0 0 18 18" xmlns="http://www.w3.org/2000/svg"><title>Artboard 1 Copy 3</title><path d="M10 10v6H8v-6H2V8h6V2h2v6h6v2h-6z" fill="#A6A6A6" fill-rule="evenodd"/></svg>

<?xml version="1.0" encoding="UTF-8" standalone="no"?>
<svg width="18px" height="18px" viewBox="0 0 18 18" version="1.1" xmlns="http://www.w3.org/2000/svg" xmlns:xlink="http://www.w3.org/1999/xlink" xmlns:sketch="http://www.bohemiancoding.com/sketch/ns">
    <!-- Generator: Sketch 3.4 (15575) - http://www.bohemiancoding.com/sketch -->
    <title>Artboard 1 Copy 3</title>
    <desc>Created with Sketch.</desc>
    <defs></defs>
    <g id="export" stroke="none" stroke-width="1" fill="none" fill-rule="evenodd" sketch:type="MSPage">
        <g id="Artboard-1-Copy-3" sketch:type="MSArtboardGroup" fill="#A6A6A6">
            <path d="M10,10 L10,16 L8,16 L8,10 L2,10 L2,8 L8,8 L8,2 L10,2 L10,8 L16,8 L16,10 L10,10 Z" id="Page-1" sketch:type="MSShapeGroup"></path>
        </g>
    </g>
</svg>
